en/_assets/wiki/svg/type-task-parameters.svg

<svg xmlns="http://www.w3.org/2000/svg" xmlns:xlink="http://www.w3.org/1999/xlink" width="16" height="16" class="yc-icon" fill="currentColor" stroke="none" aria-hidden="true"><svg viewBox="0 0 10 14" xmlns="http://www.w3.org/2000/svg"><path d="M9.39258 3.01172L7.48828 1.10742C7.18359 0.802734 6.77734 0.625 6.3457 0.625H1.75C0.835938 0.625 0.125 1.36133 0.125 2.25V12C0.125 12.9141 0.835938 13.625 1.75 13.625H8.25C9.13867 13.625 9.875 12.9141 9.875 12V4.1543C9.875 3.72266 9.69727 3.31641 9.39258 3.01172ZM8.65625 12C8.65625 12.2285 8.45312 12.4062 8.25 12.4062H1.75C1.52148 12.4062 1.34375 12.2285 1.34375 12V2.27539C1.34375 2.04688 1.52148 1.86914 1.75 1.86914H5.8125V3.875C5.8125 4.33203 6.16797 4.6875 6.625 4.6875H8.63086V12H8.65625ZM2.5625 7.73438C2.5625 8.08984 2.81641 8.34375 3.17188 8.34375H6.82812C7.1582 8.34375 7.4375 8.08984 7.4375 7.73438C7.4375 7.4043 7.1582 7.125 6.82812 7.125H3.17188C2.81641 7.125 2.5625 7.4043 2.5625 7.73438ZM6.82812 9.5625H3.17188C2.81641 9.5625 2.5625 9.8418 2.5625 10.1719C2.5625 10.5273 2.81641 10.7812 3.17188 10.7812H6.82812C7.1582 10.7812 7.4375 10.5273 7.4375 10.1719C7.4375 9.8418 7.1582 9.5625 6.82812 9.5625Z"></path></svg></svg>

<svg xmlns="http://www.w3.org/2000/svg" width="16" height="16" fill="currentColor" aria-hidden="true" class="yc-icon"><svg xmlns="http://www.w3.org/2000/svg" viewBox="0 0 10 14"><path d="M9.393 3.012 7.488 1.107A1.615 1.615 0 0 0 6.346.625H1.75A1.62 1.62 0 0 0 .125 2.25V12c0 .914.71 1.625 1.625 1.625h6.5A1.62 1.62 0 0 0 9.875 12V4.154c0-.431-.178-.838-.482-1.142ZM8.656 12a.418.418 0 0 1-.406.406h-6.5A.401.401 0 0 1 1.344 12V2.275c0-.228.177-.406.406-.406h4.063v2.006c0 .457.355.813.812.813h2.006V12h.025ZM2.562 7.734c0 .356.254.61.61.61h3.656c.33 0 .61-.254.61-.61 0-.33-.28-.609-.61-.609H3.172c-.356 0-.61.28-.61.61Zm4.266 1.829H3.172c-.356 0-.61.279-.61.609 0 .355.254.61.61.61h3.656c.33 0 .61-.255.61-.61 0-.33-.28-.61-.61-.61Z"/></svg></svg>
